X:1
T:Khvalitye imya Gospodie
T:Сергeй Рахманинов, 1910
T:Attributed to John Chrysostom, c. 349-407 AD
T:Благословен грядый
T:Литургиа Святого Иоанна Златоуста , Op. 31, No. 17-1
T:Public Domain
T:Public Domain
C:Sergei Rakhmanninov
Z:Public Domain
%%score [ 1 ( 2 3 ) ( 4 5 ) ( 6 7 ) ]
L:1/8
Q:1/4=90
M:2/2
K:Bb
V:1 treble nm="Сопрано" snm="С"
V:2 treble nm="Альт" snm="А"
V:3 treble 
V:4 treble-8 nm="Тенор" snm="Т"
V:5 treble-8 
V:6 bass nm="Бас" snm="Б"
V:7 bass 
V:1
"^Довольно скоро\nModerately fast"!ff!"^Бла-го–сло–вен гря-дый        во   и –мя Го–спод-не,         Бог  Го –сподь     и          я  –  ви    –    ся    нам.""^Bla–go– slo–ven grya-duii       vo   i–mya Go-spod-nye,     Bog  Go –spod'      i          ya –  vi     –    sya  nam." ccc | %1
 !tenuto!d3 F !>!d4- | d2 F2 B2 dd | d4!<(! (d2 e2)!<)! | [df]3 d!>(! d4-!>)! | d2!mf! d4 G2 | %6
!>(! G6 F2!>)! |!p! !fermata!F8 |] %8
[K:C][M:2/2][Q:1/4=100]"^Довольно скоро\nModerately fast"!pp!"^Ви–де –хом               свет                  ис–тин–ный,           при–я–хом    Ду   –    ха                      Не  –""^Vi–de–khom              svyet                  is – tin – nuii,           pri–ya–khom  Du   –   kha                   Nye –" E3 E E4- | %9
 E2!<(! (E2 F2 G2)!<)! |!>(! G3 G G4-!>)! | G2!<(! G2 G2 G2!<)! | G4!<(! G4-!<)! | G2!>(! G6!>)! | %14
!pp!"^–бес–на–го,              об    –    ре–то-хом ве-ру ис   –  тин        –         ну     –      ю,                        не– раз–дель  –  ней""^–bes–na–vo,              ob    – rye-to-khom ve-ru  is    –   tin          –         nu     –     yu,                        ne– raz– del'     –  nei" !tenuto!G3 G G4- | %15
 G2!p! G4 G2 | F2 F2!<(! F2 G2!<)! |!mf! A4 A4- | A4!p! (A2 G2) | F6!mf! FF | %20
 (!tenuto!_B2 F2 G2) A2 | %21
"^Тро –и – це  по–кла–ня       –         –         ем–ся:             Та     бо  нас спа-сла есть,    спа-сла       есть.   А  –  минь.""^Tro – i  – tse  po–kla–nya      –         –       yem–sya:          Ta     bo  nas  spa–cla  yest',    spa–sla        yest'.   A  –   min'."!<(! _B2 c2 d2 _ee!<)! | %22
!f!!<(! [df]8-!<)! | [df]3!ff! [_Bd] [Bd]4- | [Bd]2!f! !>![df]3 ddd | g4 [ce]4- | %26
 [ce]2!>(! f2 B4!>)! |!p! !fermata!c8 | G8 | !fermata!A8 |] %30
V:2
!ff! AAA | !tenuto!B3 B, !>!B4- | B2 B,2 F2 BB | B4!<(! (B2 c2)!<)! | [Bd]3 [FB]!>(! [FB]4-!>)! | %5
 [FB]2!mf! F4 F2 |!>(! (F4 =E2) F2!>)! |!p! !fermata!F8 |][K:C][M:2/2]!pp! C3 C C4- | %9
 C2!<(! C6!<)! |!>(! C3 C C4-!>)! | C2!<(! C2 C2 D2!<)! | E4!<(! E4-!<)! | E2!>(! (E2 D2 ^C2)!>)! | %14
!pp! ^C3 C C4- | C2!p! (([A,^C]2 [B,D]2)) [CE]2 | D2 D2!<(! D2 D2!<)! |!mf! D4 F2 E2 | _E4!p! E4 | %19
 _E6!mf! EE | [_B,D]6 [DF]2 |!<(! [DF]2 [DF]2 [F_B]2 [GB][GB]!<)! |!f!!<(! _B6 c2!<)! | %23
!ff! d3 [DF] [DF]4- | [DF]2!f! !>![Ad]3 [GB][GB][GB] | [Gc]4 A4- | A2!>(! A2 G2 F2!>)! | %27
!p! !fermata!E8 | E8 | !fermata!F8 |] %30
V:3
 x3 | x8 | x8 | x4 B4 | x8 | x8 | x8 | x8 |][K:C][M:2/2] x8 | x8 | x8 | x8 | x8 | x8 | x8 | x8 | %16
 x8 | x8 | x4 (C2 _B,2) | (A,2 _B,2 C2) CC | x8 | x8 | x8 | x8 | x8 | x8 | x8 | x8 | x8 | x8 |] %30
V:4
!ff!"^Бла-го–сло–вен гря-дый        во   и –мя Го–спод-не,         Бог  Го –сподь     и          я  –  ви    –    ся    нам.""^Bla–go– slo–ven grya-duii       vo   i–mya Go-spod-nye,     Bog  Go –spod'      i          ya –  vi     –    sya  nam." [cf][cf][cf] | %1
 !tenuto![df]3 [Fd] !>![df]4- | [df]2 [Fd]2 [Bd]2 [B=e][Be] | [df]4!<(! f4!<)! | %4
 !>!f3 [Bd]!>(! [Bd]4-!>)! | [Bd]2!mf! (F2 G2) d2 |!>(! (c4 B2) A2!>)! |!p! !fermata!A8 |] %8
[K:C][M:2/2]!pp!"^Ви–де –хом               свет                  ис–тин–ный,           при–я–хом    Ду   –    ха                      Не  –""^Vi–de–khom              svyet                  is – tin – nuii,           pri–ya–khom  Du   –   kha                   Nye –" [CG]3 [CG] [CG]4- | %9
 [CG]2!<(! (G2 A2 _B2)!<)! |!>(! [E_B]3 [EB] [EB]4-!>)! | [EB]2!<(! [E_B]2 [EB]2 [FB]2!<)! | %12
 [G_B]4!<(! [GB]4-!<)! | [GB]2!>(! (([G_B]4 A2))!>)! | %14
!pp!"^–бес–на–го,              об    –    ре–то-хом ве-ру ис   –  тин        –         ну     –      ю,                        не– раз–дель  –  ней""^–bes–na–vo,              ob    – rye-to-khom ve-ru  is    –   tin          –         nu     –     yu,                        ne– raz– del'     –  nei" !tenuto!A3 A A4- | %15
 A2!p! [EA]4 A2 | [DA]2 [DA]2!<(! [DA]2 [EA]2!<)! |!mf! A4 (A4- | A2 G2)!p! (A2 _B2) | c6!mf! FF | %20
 (!tenuto!_B2 F2 G2) A2 | %21
"^Тро –и – це  по–кла–ня       –         –         ем–ся:             Та     бо  нас спа-сла есть,    спа-сла       есть.   А  –  минь.""^Tro – i  – tse  po–kla–nya      –         –       yem–sya:          Ta     bo  nas  spa–cla  yest',    spa–sla        yest'.   A  –   min'."!<(! [F_B]2 [Fc]2 [Bd]2 [B_e][Be]!<)! | %22
!f! (f4 g2 a2 |!ff! _b3) [Fd] [Fd]4- | [Fd]2!f! !>![Af]3 [Bd][Bd][Bd] | [cg]4 [ce]4- | %26
 [ce]2!>(! [Ad]2 [Gd]4!>)! |!p! !fermata![Gc]8 | c8 | !fermata!c8 |] %30
V:5
 x3 | x8 | x8 | x4 (d2 e2) | x8 | x8 | x8 | x8 |][K:C][M:2/2] x8 | x2 (C4 D2) | x8 | x8 | x8 | x8 | %14
 x8 | x8 | x8 | F4 D2 E2 | F2 G2 x4 | x8 | x8 | x8 | d8- | d3 x x4 | x8 | x8 | x8 | x8 | x8 | x8 |] %30
V:6
!ff! F,F,F, | !tenuto!B,3 B,, !>!B,4- | B,2 B,,2 F,2 G,G, | B,4!<(! (B,2 C2)!<)! | %4
 !>!D3 B,!>(! B,4-!>)! | B,2!mf! B,,4 =B,,2 |!>(! C,6 [F,,C,]2!>)! |!p! !fermata![F,,C,]8 |] %8
[K:C][M:2/2]!pp!"^Ви       –        де –хом        свет           ис       –     тин–ный,                                  при–я–хом  Ду    –    ха     Не –""^Vi        –        de–khom     svyet           is        –       tin – nuii,                                 pri–ya–khom Du    –   kha  Nye –" [C,,C,]6 [C,,C,]2 | %9
 [C,,C,]4!<(! [C,,C,]4!<)! |!>(! [C,,C,]6 [C,,C,]2!>)! | [C,,C,]8- | %12
 [C,,C,]2 [C,,C,]2!<(! [C,,C,]2 [C,,C,]2!<)! | !tenuto!C,4!>(! [_B,,D,]2 [A,,E,]2!>)! | %14
!pp!"^–бес      –     на– го,          об–ре – то  –  хом             ве   –  ру    ис  –  тин–ну – ю,""^–bes      –      na –vo,         ob–rye– to  – khom           ve   –  ru      is   –  tin   –nu –yu," !tenuto![A,,E,]6 A,,2 | %15
 A,,4!p! A,,2 A,,2 | [D,,D,]4!<(! [D,,D,]4-!<)! |!mf! [D,,D,]2 [D,,D,]4 [E,,^C,]2 | %18
 [F,,C,]4!p! [F,,C,]2 [F,,C,]2 | (C,2 D,2 _E,2)!mf! A,,A,, | (!tenuto!_B,,2 F,,2 G,,2) A,,2 | %21
!<(! _B,,2 C,2 D,2 _E,E,!<)! |!f!!<(! (F,4 G,2!ff! A,2!<)! | _B,3) _B,, B,,4- | %24
 B,,2!f! !>![D,D]3 G,G,F, | E,4 A,4- | A,2!>(! D,2 G,4!>)! |!p! !fermata!C,8 | C,8 | %29
 !fermata!F,8 |] %30
V:7
 x3 | x8 | x8 | x8 | x8 | x8 | x8 | x8 |][K:C][M:2/2] x8 | x8 | x8 | x8 | x8 | x8 | x8 | x8 | x8 | %17
 x8 | x8 | (F,,4 G,,2) A,,A,, | x8 | x8 | x8 | x8 | x8 | x8 | x8 | x8 | x8 | x8 |] %30

